build/assets/images/svg/food/2-konservy.svg

<svg width="28" height="28" viewBox="0 0 28 28" fill="none" xmlns="http://www.w3.org/2000/svg">
<path d="M19.9071 14.0821C20.2186 14.0821 20.4706 14.3341 20.4706 14.6456C20.4706 14.9571 20.2186 15.2091 19.9071 15.2091H2.01507C1.70357 15.2091 1.45156 14.9571 1.45156 14.6456C1.45156 14.3341 1.70357 14.0821 2.01507 14.0821H19.9071ZM25.7836 17.1586V19.9831H20.2711V18.0651C22.0141 17.7466 23.3056 16.2101 23.3056 14.4181C23.3056 12.3741 21.6431 10.7116 19.5991 10.7116C17.9856 10.7116 16.5541 11.7651 16.0676 13.2911H13.4146V9.75613H25.7871V17.1586H25.7836ZM26.5711 15.3456V6.60962C27.1416 6.45212 27.5616 5.92712 27.5616 5.30762C27.5616 4.56212 26.9561 3.95312 26.2071 3.95312H12.9876C12.2421 3.95312 11.6331 4.55862 11.6331 5.30762C11.6331 5.92712 12.0531 6.45212 12.6236 6.60962V13.2981H8.23456L8.46206 11.2366C8.50406 10.8621 8.38156 10.4876 8.13306 10.2111C7.88106 9.93112 7.52406 9.77012 7.14956 9.77012H5.79857C5.42407 9.77012 5.06357 9.93112 4.81507 10.2111C4.56307 10.4911 4.44407 10.8656 4.48607 11.2366L4.71356 13.2981H2.01856C1.27306 13.2981 0.664062 13.9036 0.664062 14.6526C0.664062 15.2721 1.08407 15.7971 1.65457 15.9546V23.7981C1.08407 23.9591 0.664062 24.4806 0.664062 25.1001C0.664062 25.8456 1.26956 26.4546 2.01856 26.4546H26.2141C26.9596 26.4546 27.5686 25.8491 27.5686 25.1001C27.5686 24.4806 27.1486 23.9556 26.5781 23.7981V15.3456H26.5711ZM2.01156 25.6601C1.70006 25.6601 1.44807 25.4081 1.44807 25.0966C1.44807 24.7851 1.70006 24.5331 2.01156 24.5331H19.9036C20.2151 24.5331 20.4671 24.7851 20.4671 25.0966C20.4671 25.4081 20.2151 25.6601 19.9036 25.6601H2.01156ZM13.4111 8.97212V6.65862H25.7836V8.97212H13.4111ZM12.4206 5.30413C12.4206 4.99263 12.6726 4.74062 12.9841 4.74062H26.2036C26.5151 4.74062 26.7671 4.99263 26.7671 5.30413C26.7671 5.61563 26.5151 5.86763 26.2036 5.86763H12.9841C12.6761 5.86763 12.4206 5.61563 12.4206 5.30413ZM5.26307 11.1491C5.24557 10.9951 5.29457 10.8481 5.39607 10.7361C5.49757 10.6206 5.64106 10.5576 5.79506 10.5576H7.14607C7.30007 10.5576 7.44006 10.6206 7.54506 10.7361C7.64656 10.8516 7.69557 10.9986 7.67807 11.1491L7.44356 13.2946H5.50457L5.26307 11.1491ZM25.7836 20.7706V23.7421H20.2711V20.7706H25.7836ZM19.4801 23.7421H2.43506V16.0001H19.4801V23.7421ZM21.2581 14.6491C21.2581 13.9036 20.6526 13.2946 19.9036 13.2946H16.9006C17.3486 12.2236 18.4091 11.5026 19.5956 11.5026C21.2056 11.5026 22.5146 12.8116 22.5146 14.4216C22.5146 15.7831 21.5661 16.9556 20.2676 17.2636V15.9546C20.8381 15.7936 21.2581 15.2686 21.2581 14.6491ZM26.2071 25.6601H21.1356C21.2161 25.4886 21.2581 25.2961 21.2581 25.0966C21.2581 24.8936 21.2126 24.7046 21.1356 24.5331H26.2071C26.5186 24.5331 26.7706 24.7851 26.7706 25.0966C26.7706 25.4081 26.5186 25.6601 26.2071 25.6601Z" fill="#203686"/>
<path d="M6.88707 11.4325H6.05058C5.83358 11.4325 5.65508 11.6075 5.65508 11.828C5.65508 12.045 5.83008 12.2235 6.05058 12.2235H6.88707C7.10407 12.2235 7.28258 12.0485 7.28258 11.828C7.28258 11.6075 7.10407 11.4325 6.88707 11.4325Z" fill="#203686"/>
<path d="M6.59298 21.5794C6.67698 21.6074 6.72948 21.6774 6.72948 21.7544V21.7719C6.72948 22.3039 7.16347 22.7379 7.69547 22.7379H14.216C14.748 22.7379 15.182 22.3039 15.182 21.7719V21.7579C15.182 21.6809 15.238 21.6109 15.322 21.5829C16.0745 21.3484 16.582 20.6624 16.582 19.8714C16.582 19.0979 16.0885 18.4154 15.357 18.1704C15.252 18.1354 15.182 18.0374 15.182 17.9254C15.182 17.3934 14.748 16.9594 14.216 16.9594H7.69898C7.16698 16.9594 6.73297 17.3934 6.73297 17.9254C6.73297 18.0374 6.65948 18.1389 6.55448 18.1774C5.83698 18.4294 5.35397 19.1084 5.35397 19.8679C5.35047 20.6554 5.85098 21.3414 6.59298 21.5794ZM6.81348 18.9264C7.23698 18.7794 7.52047 18.3769 7.52047 17.9289C7.52047 17.8309 7.60098 17.7504 7.69898 17.7504H14.2195C14.3175 17.7504 14.398 17.8309 14.398 17.9289C14.398 18.3804 14.685 18.7759 15.112 18.9194C15.5215 19.0559 15.798 19.4409 15.798 19.8714C15.798 20.3124 15.5145 20.7009 15.091 20.8304C14.678 20.9599 14.398 21.3309 14.398 21.7579V21.7719C14.398 21.8699 14.3175 21.9504 14.2195 21.9504H7.69898C7.60098 21.9504 7.52047 21.8699 7.52047 21.7719V21.7544C7.52047 21.3344 7.24398 20.9599 6.83798 20.8304C6.42148 20.6974 6.14147 20.3124 6.14147 19.8749C6.14147 19.4479 6.41098 19.0664 6.81348 18.9264Z" fill="#203686"/>
<path d="M19.9071 14.0821C20.2186 14.0821 20.4706 14.3341 20.4706 14.6456C20.4706 14.9571 20.2186 15.2091 19.9071 15.2091H2.01507C1.70357 15.2091 1.45156 14.9571 1.45156 14.6456C1.45156 14.3341 1.70357 14.0821 2.01507 14.0821H19.9071ZM25.7836 17.1586V19.9831H20.2711V18.0651C22.0141 17.7466 23.3056 16.2101 23.3056 14.4181C23.3056 12.3741 21.6431 10.7116 19.5991 10.7116C17.9856 10.7116 16.5541 11.7651 16.0676 13.2911H13.4146V9.75613H25.7871V17.1586H25.7836ZM26.5711 15.3456V6.60962C27.1416 6.45212 27.5616 5.92712 27.5616 5.30762C27.5616 4.56212 26.9561 3.95312 26.2071 3.95312H12.9876C12.2421 3.95312 11.6331 4.55862 11.6331 5.30762C11.6331 5.92712 12.0531 6.45212 12.6236 6.60962V13.2981H8.23456L8.46206 11.2366C8.50406 10.8621 8.38156 10.4876 8.13306 10.2111C7.88106 9.93112 7.52406 9.77012 7.14956 9.77012H5.79857C5.42407 9.77012 5.06357 9.93112 4.81507 10.2111C4.56307 10.4911 4.44407 10.8656 4.48607 11.2366L4.71356 13.2981H2.01856C1.27306 13.2981 0.664062 13.9036 0.664062 14.6526C0.664062 15.2721 1.08407 15.7971 1.65457 15.9546V23.7981C1.08407 23.9591 0.664062 24.4806 0.664062 25.1001C0.664062 25.8456 1.26956 26.4546 2.01856 26.4546H26.2141C26.9596 26.4546 27.5686 25.8491 27.5686 25.1001C27.5686 24.4806 27.1486 23.9556 26.5781 23.7981V15.3456H26.5711ZM2.01156 25.6601C1.70006 25.6601 1.44807 25.4081 1.44807 25.0966C1.44807 24.7851 1.70006 24.5331 2.01156 24.5331H19.9036C20.2151 24.5331 20.4671 24.7851 20.4671 25.0966C20.4671 25.4081 20.2151 25.6601 19.9036 25.6601H2.01156ZM13.4111 8.97212V6.65862H25.7836V8.97212H13.4111ZM12.4206 5.30413C12.4206 4.99263 12.6726 4.74062 12.9841 4.74062H26.2036C26.5151 4.74062 26.7671 4.99263 26.7671 5.30413C26.7671 5.61563 26.5151 5.86763 26.2036 5.86763H12.9841C12.6761 5.86763 12.4206 5.61563 12.4206 5.30413ZM5.26307 11.1491C5.24557 10.9951 5.29457 10.8481 5.39607 10.7361C5.49757 10.6206 5.64106 10.5576 5.79506 10.5576H7.14607C7.30007 10.5576 7.44006 10.6206 7.54506 10.7361C7.64656 10.8516 7.69557 10.9986 7.67807 11.1491L7.44356 13.2946H5.50457L5.26307 11.1491ZM25.7836 20.7706V23.7421H20.2711V20.7706H25.7836ZM19.4801 23.7421H2.43506V16.0001H19.4801V23.7421ZM21.2581 14.6491C21.2581 13.9036 20.6526 13.2946 19.9036 13.2946H16.9006C17.3486 12.2236 18.4091 11.5026 19.5956 11.5026C21.2056 11.5026 22.5146 12.8116 22.5146 14.4216C22.5146 15.7831 21.5661 16.9556 20.2676 17.2636V15.9546C20.8381 15.7936 21.2581 15.2686 21.2581 14.6491ZM26.2071 25.6601H21.1356C21.2161 25.4886 21.2581 25.2961 21.2581 25.0966C21.2581 24.8936 21.2126 24.7046 21.1356 24.5331H26.2071C26.5186 24.5331 26.7706 24.7851 26.7706 25.0966C26.7706 25.4081 26.5186 25.6601 26.2071 25.6601Z" stroke="#203686" stroke-width="0.1225" stroke-miterlimit="10"/>
<path d="M6.88707 11.4325H6.05058C5.83358 11.4325 5.65508 11.6075 5.65508 11.828C5.65508 12.045 5.83008 12.2235 6.05058 12.2235H6.88707C7.10407 12.2235 7.28258 12.0485 7.28258 11.828C7.28258 11.6075 7.10407 11.4325 6.88707 11.4325Z" stroke="#203686" stroke-width="0.1225" stroke-miterlimit="10"/>
<path d="M6.59298 21.5794C6.67698 21.6074 6.72948 21.6774 6.72948 21.7544V21.7719C6.72948 22.3039 7.16347 22.7379 7.69547 22.7379H14.216C14.748 22.7379 15.182 22.3039 15.182 21.7719V21.7579C15.182 21.6809 15.238 21.6109 15.322 21.5829C16.0745 21.3484 16.582 20.6624 16.582 19.8714C16.582 19.0979 16.0885 18.4154 15.357 18.1704C15.252 18.1354 15.182 18.0374 15.182 17.9254C15.182 17.3934 14.748 16.9594 14.216 16.9594H7.69898C7.16698 16.9594 6.73297 17.3934 6.73297 17.9254C6.73297 18.0374 6.65948 18.1389 6.55448 18.1774C5.83698 18.4294 5.35397 19.1084 5.35397 19.8679C5.35047 20.6554 5.85098 21.3414 6.59298 21.5794ZM6.81348 18.9264C7.23698 18.7794 7.52047 18.3769 7.52047 17.9289C7.52047 17.8309 7.60098 17.7504 7.69898 17.7504H14.2195C14.3175 17.7504 14.398 17.8309 14.398 17.9289C14.398 18.3804 14.685 18.7759 15.112 18.9194C15.5215 19.0559 15.798 19.4409 15.798 19.8714C15.798 20.3124 15.5145 20.7009 15.091 20.8304C14.678 20.9599 14.398 21.3309 14.398 21.7579V21.7719C14.398 21.8699 14.3175 21.9504 14.2195 21.9504H7.69898C7.60098 21.9504 7.52047 21.8699 7.52047 21.7719V21.7544C7.52047 21.3344 7.24398 20.9599 6.83798 20.8304C6.42148 20.6974 6.14147 20.3124 6.14147 19.8749C6.14147 19.4479 6.41098 19.0664 6.81348 18.9264Z" stroke="#203686" stroke-width="0.1225" stroke-miterlimit="10"/>
</svg>

<svg width="28" height="28" fill="none" xmlns="http://www.w3.org/2000/svg"><path d="M19.907 14.082a.563.563 0 110 1.127H2.015a.563.563 0 110-1.127h17.892zm5.877 3.077v2.824H20.27v-1.918a3.715 3.715 0 003.035-3.647 3.71 3.71 0 00-3.707-3.706 3.716 3.716 0 00-3.531 2.58h-2.653V9.755h12.372v7.403h-.003zm.787-1.813V6.61a1.353 1.353 0 00-.364-2.657h-13.22a1.353 1.353 0 00-.364 2.656v6.69H8.236l.227-2.062A1.324 1.324 0 007.15 9.77H5.799a1.319 1.319 0 00-1.313 1.466l.228 2.061H2.019a1.353 1.353 0 00-.364 2.656v7.844c-.57.161-.99.683-.99 1.302 0 .746.605 1.355 1.354 1.355h24.195a1.353 1.353 0 00.364-2.656v-8.453h-.007zM2.011 25.66a.563.563 0 110-1.127h17.893a.563.563 0 110 1.127H2.012zm11.4-16.688V6.66h12.373v2.313H13.41zm-.99-3.668c0-.311.252-.563.563-.563h13.22a.563.563 0 110 1.127h-13.22a.565.565 0 01-.563-.564zM5.263 11.15a.521.521 0 01.133-.413.526.526 0 01.4-.178h1.35a.531.531 0 01.532.591l-.234 2.146h-1.94l-.24-2.146zm20.52 9.622v2.971h-5.512v-2.971h5.513zm-6.303 2.971H2.435V16H19.48v7.742zm1.778-9.093c0-.745-.605-1.354-1.354-1.354H16.9a2.922 2.922 0 015.614 1.127 2.93 2.93 0 01-2.247 2.842v-1.31c.57-.16.99-.685.99-1.305zm4.95 11.011h-5.072a1.368 1.368 0 000-1.127h5.071a.563.563 0 110 1.127z" fill="#203686"/><path d="M6.887 11.432h-.836a.395.395 0 100 .791h.836a.395.395 0 100-.79zM6.593 21.58a.186.186 0 01.136.174v.018c0 .532.434.966.966.966h6.521a.968.968 0 00.966-.966v-.014c0-.077.056-.147.14-.175a1.784 1.784 0 001.26-1.712c0-.773-.494-1.456-1.225-1.7a.256.256 0 01-.175-.246.968.968 0 00-.966-.966H7.699a.968.968 0 00-.966.966.272.272 0 01-.179.252c-.717.252-1.2.931-1.2 1.69a1.78 1.78 0 001.239 1.712zm.22-2.654c.424-.147.707-.55.707-.997a.18.18 0 01.179-.179h6.52a.18.18 0 01.179.179c0 .451.287.847.714.99a1.005 1.005 0 01-.021 1.911.973.973 0 00-.693.928v.014a.18.18 0 01-.178.178H7.699a.18.18 0 01-.179-.178v-.018a.975.975 0 00-.682-.924 1.004 1.004 0 01-.024-1.904z" fill="#203686"/><path d="M19.907 14.082a.563.563 0 110 1.127H2.015a.563.563 0 110-1.127h17.892zm5.877 3.077v2.824H20.27v-1.918a3.715 3.715 0 003.035-3.647 3.71 3.71 0 00-3.707-3.706 3.716 3.716 0 00-3.531 2.58h-2.653V9.755h12.372v7.403h-.003zm.787-1.813V6.61a1.353 1.353 0 00-.364-2.657h-13.22a1.353 1.353 0 00-.364 2.656v6.69H8.236l.227-2.062A1.324 1.324 0 007.15 9.77H5.799a1.319 1.319 0 00-1.313 1.466l.228 2.061H2.019a1.353 1.353 0 00-.364 2.656v7.844c-.57.161-.99.683-.99 1.302 0 .746.605 1.355 1.354 1.355h24.195a1.353 1.353 0 00.364-2.656v-8.453h-.007zM2.011 25.66a.563.563 0 110-1.127h17.893a.563.563 0 110 1.127H2.012zm11.4-16.688V6.66h12.373v2.313H13.41zm-.99-3.668c0-.311.252-.563.563-.563h13.22a.563.563 0 110 1.127h-13.22a.565.565 0 01-.563-.564zM5.263 11.15a.521.521 0 01.133-.413.526.526 0 01.4-.178h1.35a.531.531 0 01.532.591l-.234 2.146h-1.94l-.24-2.146zm20.52 9.622v2.971h-5.512v-2.971h5.513zm-6.303 2.971H2.435V16H19.48v7.742zm1.778-9.093c0-.745-.605-1.354-1.354-1.354H16.9a2.922 2.922 0 015.614 1.127 2.93 2.93 0 01-2.247 2.842v-1.31c.57-.16.99-.685.99-1.305zm4.95 11.011h-5.072a1.368 1.368 0 000-1.127h5.071a.563.563 0 110 1.127z" stroke="#203686" stroke-width=".122" stroke-miterlimit="10"/><path d="M6.887 11.432h-.836a.395.395 0 100 .791h.836a.395.395 0 100-.79zM6.593 21.58a.186.186 0 01.136.174v.018c0 .532.434.966.966.966h6.521a.968.968 0 00.966-.966v-.014c0-.077.056-.147.14-.175a1.784 1.784 0 001.26-1.712c0-.773-.494-1.456-1.225-1.7a.256.256 0 01-.175-.246.968.968 0 00-.966-.966H7.699a.968.968 0 00-.966.966.272.272 0 01-.179.252c-.717.252-1.2.931-1.2 1.69a1.78 1.78 0 001.239 1.712zm.22-2.654c.424-.147.707-.55.707-.997a.18.18 0 01.179-.179h6.52a.18.18 0 01.179.179c0 .451.287.847.714.99a1.005 1.005 0 01-.021 1.911.973.973 0 00-.693.928v.014a.18.18 0 01-.178.178H7.699a.18.18 0 01-.179-.178v-.018a.975.975 0 00-.682-.924 1.004 1.004 0 01-.024-1.904z" stroke="#203686" stroke-width=".122" stroke-miterlimit="10"/></svg>
